X:22
T:Chief O'Neill's
T:Flowers of Adrigole, The
R:hornpipe
N:1st bar of 2nd part also played |=FEFG AGAB|. Also played with ^F in this bar.
D:Paddy Glackin: In Full Spate
Z:id:hn-hornpipe-22
M:C|
K:Dmix
de|fefg afge|fde^c d=cAG|~F3D FGAB|cAdc A2de|
fefg afge|fde^c d=cAG|FEFD GBAG|F2D2 D2:|
|:DE|=F2FE FGAB|cAdB cAGB|Adde fded|^cAdc A2de|
f2fg afge|fded dcAG|F2FD GBAG|F2D2 D2:|
